app/images/nav_icons/play.svg

<svg width="127" height="127" viewBox="0 0 127 127" fill="none" xmlns="http://www.w3.org/2000/svg">
<path opacity="0.4" fill-rule="evenodd" clip-rule="evenodd" d="M63.5 -0.000127C98.57 -0.000127 127 28.4298 127 63.4997C127 98.57 98.57 127 63.5 127C28.43 127 -0.000127 98.57 -0.000127 63.4997C-0.000127 28.4298 28.43 -0.000127 63.5 -0.000127Z" fill="#A3BBC8"/>
<path fill-rule="evenodd" clip-rule="evenodd" d="M63 13.9998C90.0618 13.9998 112 35.9378 112 62.9998C112 90.0618 90.0618 112 63 112C35.9381 112 13.9999 90.0618 13.9999 62.9998C13.9999 35.9378 35.9381 13.9998 63 13.9998Z" fill="#A3BBC8"/>
<path fill-rule="evenodd" clip-rule="evenodd" d="M73.684 64.7397L57.6399 74.5362C57.1394 74.8425 56.5593 74.9967 55.9772 74.9967C55.4977 74.9967 55.0168 74.8915 54.5781 74.6804C53.6065 74.2101 52.9995 73.2931 52.9995 72.295V52.6999C52.9995 51.7012 53.6065 50.7829 54.5781 50.3136C55.5493 49.8453 56.7268 49.8998 57.6399 50.457L73.684 60.2549C74.5063 60.7572 74.9995 61.5978 74.9995 62.4965C74.9995 63.3959 74.5063 64.2371 73.684 64.7397Z" fill="white"/>
</svg>

<svg width="127" height="127" fill="none" xmlns="http://www.w3.org/2000/svg"><path opacity=".4" fill-rule="evenodd" clip-rule="evenodd" d="M63.5 0C98.57 0 127 28.43 127 63.5S98.57 127 63.5 127 0 98.57 0 63.5 28.43 0 63.5 0z" fill="#A3BBC8"/><path fill-rule="evenodd" clip-rule="evenodd" d="M63 14c27.062 0 49 21.938 49 49s-21.938 49-49 49-49-21.938-49-49 21.938-49 49-49z" fill="#A3BBC8"/><path fill-rule="evenodd" clip-rule="evenodd" d="M73.684 64.74L57.64 74.536c-.5.306-1.08.46-1.663.46-.48 0-.96-.105-1.399-.316-.972-.47-1.579-1.387-1.579-2.385V52.7c0-.999.607-1.917 1.58-2.386a3.242 3.242 0 013.06.143l16.045 9.798c.822.502 1.316 1.343 1.316 2.241 0 .9-.494 1.741-1.316 2.244z" fill="#fff"/></svg>
